symbolic/24x24/panel/mailspring-tray-full-newitems.svg

<svg xmlns="http://www.w3.org/2000/svg" width="24" height="24" version="1.1">
 <defs>
  <style id="current-color-scheme" type="text/css">
   .ColorScheme-Text { color:#323a41; } .ColorScheme-Highlight { color:#4285f4; } .ColorScheme-NeutralText { color:#ff9800; } .ColorScheme-PositiveText { color:#4caf50; } .ColorScheme-NegativeText { color:#f44336; }
  </style>
 </defs>
 <path style="fill:currentColor" class="ColorScheme-Text" d="M 12,3.9999999 A 8,8 0 0 0 4,12 a 8,8 0 0 0 8,8 8,8 0 0 0 8,-8 8,8 0 0 0 -8,-8.0000001 z m -5,4 10,0 L 12,13 7,7.9999999 Z M 7,9.4140621 10.292969,12.707031 7,16 7,9.4140621 Z m 10,0 L 17,16 13.707031,12.707031 17,9.4140621 Z m -6,3.9999999 0.292969,0.292969 a 1.0001,1.0001 0 0 0 1.414062,0 L 13,13.414062 15.585938,16 8.4140625,16 11,13.414062 Z"/>
 <circle style="fill:currentColor" class="ColorScheme-Highlight" cx="21" cy="19" r="2"/>
</svg>

<svg xmlns="http://www.w3.org/2000/svg" width="24" height="24"><defs><style id="current-color-scheme" type="text/css"></style></defs><path style="fill:currentColor;color:#323a41" d="M12 4a8 8 0 0 0-8 8 8 8 0 0 0 8 8 8 8 0 0 0 8-8 8 8 0 0 0-8-8zM7 8h10l-5 5-5-5zm0 1.414 3.293 3.293L7 16V9.414zm10 0V16l-3.293-3.293L17 9.414zm-6 4 .293.293a1 1 0 0 0 1.414 0l.293-.293L15.586 16H8.414L11 13.414z"/><circle style="fill:currentColor;color:#4285f4" cx="21" cy="19" r="2"/></svg>
